!!! OTL: Literature59
!!! Chapter: 5
!!! Section: II
!!! Page: 358
!!! Mode: 
!!! Encoder: ESM
**kern
*staff1
*I"Piano
=1-
*clefG2
*k[b-]
*g:
*M3/2
2r
2r
4r
4g/
=2
4g/
4b-\
[2dd\
8dd\L]
8cc\
8b-\
8cc\J
=3
4dd\
4b-\
2.g/
4g/
=4
4g/
4dd\
2.cc\
4dd\
=5
4g/
4b-\
2b-\
4r
8b-\L
8cc\J
=6
4dd\
4g/
2.g/
8f/L
8g/J
=7
4b-\
4b-\
4g/
4f/
2d/
=8
!!linebreak:original
4g/
8g/L
8f/J
2.d/
8f/L
8a/J
=9
2g/
2g/
4r
4r
==
*-
